X:68
T:Silent Night
%%stretchlast false
M:3/4
L:1/4
K:G clef=C1
"^I"[G,,D,B,D]3/4 "^IV²"[G,,D,CE]/4 "^I"[G,,D,B,D]/ [G,,D,G,B,]3/2 | [G,,D,B,D]3/4 "^IV²"[G,,D,CE]/4 "^I"[G,,D,B,D]/ [G,,D,G,B,]3/2 | "^V7"[D,F,CA] [D,F,CA]/ [D,A,CF]3/2 | "^I"[G,,G,B,G] [G,,G,B,G]/ [G,,G,B,D]3/2 | "^IV"[C,G,CE] [C,G,CE]/ [C,G,EG]3/4 "^V"[C,G,DF]/4 "^IV"[C,G,CE]/ | "^I"[G,,G,B,D]3/4 "^IV²"[G,,G,CE]/4 "^I"[G,,G,B,D]/ [G,,G,B,]3/2 | "^IV"[C,G,CE] [C,G,CE]/ [C,G,EG]3/4 "^V"[C,G,DF]/4 "^IV"[C,G,CE]/ | "^I"[G,,G,B,D]3/4 "^IV²"[G,,G,CE]/4 "^I"[G,,G,B,D]/ [G,,G,B,]3/2 | "^V"[D,F,DA] [D,F,DA]/ "^V7"[D,F,Dc]3/4 "^V"[D,F,DA]/4 "^V7"[D,CDF]/ | "^I"[G,B,DG]3/2 [G,DB]3/2 | "^I¹"[B,,D,G,G]/ [B,,D,G,D]/ "^I"[G,,D,G,B,]/ "^V"[D,,D,F,D]3/4 "^V7"[D,,D,F,C]/4 [D,,C,F,A,]/ | "^I"[G,,B,,G,]3 |]
